flaticon/constructions/hydrant.svg

<svg xmlns="http://www.w3.org/2000/svg" width="32" height="32" viewBox="0 0 24 24">
    <path d="M 12.800781 11.601562 L 10.800781 11.601562 C 10.558594 11.601562 10.398438 11.761719 10.398438 12 L 10.398438 14.398438 L 7.199219 14.398438 L 7.199219 12 C 7.199219 11.761719 7.039062 11.601562 6.800781 11.601562 L 4.800781 11.601562 C 4.558594 11.601562 4.398438 11.761719 4.398438 12 L 4.398438 20 C 4.398438 20.238281 4.558594 20.398438 4.800781 20.398438 L 6.800781 20.398438 C 7.039062 20.398438 7.199219 20.238281 7.199219 20 L 7.199219 17.199219 L 10.398438 17.199219 L 10.398438 20 C 10.398438 20.238281 10.558594 20.398438 10.800781 20.398438 L 12.800781 20.398438 C 13.039062 20.398438 13.199219 20.238281 13.199219 20 L 13.199219 12 C 13.199219 11.761719 13.039062 11.601562 12.800781 11.601562 Z M 12.398438 19.601562 L 11.199219 19.601562 L 11.199219 16.800781 C 11.199219 16.558594 11.039062 16.398438 10.800781 16.398438 L 6.800781 16.398438 C 6.558594 16.398438 6.398438 16.558594 6.398438 16.800781 L 6.398438 19.601562 L 5.199219 19.601562 L 5.199219 12.398438 L 6.398438 12.398438 L 6.398438 14.800781 C 6.398438 15.039062 6.558594 15.199219 6.800781 15.199219 L 10.800781 15.199219 C 11.039062 15.199219 11.199219 15.039062 11.199219 14.800781 L 11.199219 12.398438 L 12.398438 12.398438 Z M 12.398438 19.601562"/>
    <path d="M 23.601562 20.800781 C 21.039062 20.800781 18.800781 18.761719 18.800781 16.398438 C 18.800781 15.441406 18.121094 14.640625 17.199219 14.441406 L 17.199219 12 C 19.441406 12.238281 21.199219 14.121094 21.199219 16.398438 C 21.199219 17.519531 22.480469 18.398438 23.601562 18.398438 C 23.839844 18.398438 24 18.238281 24 18 C 24 17.761719 23.839844 17.601562 23.601562 17.601562 C 22.921875 17.601562 22 17 22 16.398438 C 22 13.519531 19.679688 11.199219 16.800781 11.199219 L 15.601562 11.199219 L 15.601562 10.398438 L 16.601562 10.398438 C 17.160156 10.398438 17.601562 9.960938 17.558594 9.398438 L 17.558594 9.039062 C 17.558594 8.480469 17.121094 8.039062 16.558594 8.039062 L 15.589844 8.039062 C 15.425781 4.851562 13.070312 2.25 10 1.707031 L 10 1.199219 C 10 0.519531 9.480469 0 8.800781 0 C 8.121094 0 7.601562 0.519531 7.601562 1.199219 L 7.601562 1.707031 C 4.527344 2.25 2.175781 4.851562 2.007812 8.039062 L 1 8.039062 C 0.441406 8.039062 0 8.480469 0 9.039062 L 0 9.398438 C 0 9.960938 0.480469 10.398438 1.039062 10.398438 L 2 10.398438 L 2 11.199219 L 0.800781 11.199219 C 0.558594 11.199219 0.398438 11.359375 0.398438 11.601562 L 0.398438 14.800781 C 0.398438 15.039062 0.558594 15.199219 0.800781 15.199219 L 2 15.199219 L 2 21.601562 C 0.878906 21.601562 0 22.480469 0 23.601562 C 0 23.839844 0.160156 24 0.398438 24 L 17.199219 24 C 17.441406 24 17.601562 23.839844 17.601562 23.601562 C 17.601562 22.480469 16.71875 21.601562 15.601562 21.601562 L 15.601562 15.199219 L 16.800781 15.199219 C 17.480469 15.199219 18 15.71875 18 16.398438 C 18 19.160156 20.601562 21.601562 23.601562 21.601562 C 23.839844 21.601562 24 21.441406 24 21.199219 C 24 20.960938 23.839844 20.800781 23.601562 20.800781 Z M 8.398438 1.601562 L 8.398438 1.199219 C 8.398438 0.960938 8.558594 0.800781 8.800781 0.800781 C 9.039062 0.800781 9.199219 0.960938 9.199219 1.199219 L 9.199219 1.601562 C 9.078125 1.601562 8.921875 1.601562 8.800781 1.601562 C 8.679688 1.601562 8.558594 1.601562 8.398438 1.601562 Z M 8.800781 2.398438 C 12 2.398438 14.601562 4.878906 14.800781 8 L 2.800781 8 C 3.039062 4.878906 5.601562 2.398438 8.800781 2.398438 Z M 0.800781 9.359375 L 0.800781 9 C 0.800781 8.878906 0.921875 8.800781 1.039062 8.800781 L 1.039062 8.839844 L 16.601562 8.839844 C 16.71875 8.839844 16.800781 8.921875 16.800781 9.039062 L 16.800781 9.398438 C 16.800781 9.519531 16.71875 9.601562 16.601562 9.601562 L 1.039062 9.601562 C 0.921875 9.601562 0.800781 9.519531 0.800781 9.359375 Z M 1.199219 14.398438 L 1.199219 12 L 2 12 L 2 14.398438 Z M 15.640625 22.398438 C 16.160156 22.398438 16.601562 22.71875 16.761719 23.199219 L 0.878906 23.199219 C 1.039062 22.71875 1.480469 22.398438 2 22.398438 Z M 2.800781 21.601562 L 2.800781 10.398438 L 14.800781 10.398438 L 14.800781 21.601562 Z M 15.601562 12 L 16.398438 12 L 16.398438 14.398438 L 15.601562 14.398438 Z M 15.601562 12"/>
</svg>

<svg xmlns="http://www.w3.org/2000/svg" width="32" height="32" viewBox="0 0 24 24">
    <path d="M12.8 11.602h-2c-.241 0-.402.16-.402.398v2.398H7.2V12c0-.238-.16-.398-.398-.398h-2c-.242 0-.403.16-.403.398v8c0 .238.16.398.403.398h2c.238 0 .398-.16.398-.398v-2.8h3.2V20c0 .238.16.398.402.398h2c.238 0 .398-.16.398-.398v-8c0-.238-.16-.398-.398-.398zm-.402 8H11.2V16.8c0-.242-.16-.403-.398-.403h-4c-.242 0-.403.16-.403.403v2.8H5.2v-7.203h1.2v2.403c0 .238.16.398.402.398h4c.238 0 .398-.16.398-.398v-2.403h1.2zm0 0"/>
    <path d="M23.602 20.8c-2.563 0-4.801-2.038-4.801-4.402a2.01 2.01 0 0 0-1.602-1.957V12c2.242.238 4 2.121 4 4.398 0 1.122 1.281 2 2.403 2 .238 0 .398-.16.398-.398 0-.238-.16-.398-.398-.398-.68 0-1.602-.602-1.602-1.204a5.19 5.19 0 0 0-5.2-5.199h-1.198v-.8h1c.558 0 1-.438.957-1v-.36a.99.99 0 0 0-1-1h-.97A6.79 6.79 0 0 0 10 1.707v-.508C10 .52 9.48 0 8.8 0c-.679 0-1.198.52-1.198 1.2v.507a6.793 6.793 0 0 0-5.594 6.332H1c-.559 0-1 .441-1 1v.36c0 .562.48 1 1.04 1H2v.8H.8c-.241 0-.402.16-.402.403V14.8c0 .238.16.398.403.398H2v6.403c-1.121 0-2 .878-2 2 0 .238.16.398.398.398H17.2c.242 0 .403-.16.403-.398 0-1.122-.883-2-2-2v-6.403H16.8c.68 0 1.199.52 1.199 1.2 0 2.761 2.602 5.203 5.602 5.203.238 0 .398-.16.398-.403 0-.238-.16-.398-.398-.398zM8.398 1.603v-.403c0-.238.16-.398.403-.398.238 0 .398.16.398.398v.403h-.801zm.403.796c3.199 0 5.8 2.48 6 5.602h-12c.238-3.121 2.8-5.602 6-5.602zM.8 9.36V9c0-.121.12-.2.238-.2v.04h15.563c.117 0 .199.082.199.2v.358c0 .122-.082.204-.2.204H1.04a.233.233 0 0 1-.238-.243zm.398 5.04V12H2v2.398zm14.442 8c.52 0 .96.32 1.12.8H.88c.16-.48.601-.8 1.121-.8zM2.8 21.601V10.398h12v11.204zM15.6 12h.797v2.398h-.796zm0 0"/>
</svg>
